Papirus/16x16/apps/GPG-Key4.svg

<svg width="16" height="16" version="1.1" xmlns="http://www.w3.org/2000/svg">
 <g>
  <rect width="16" height="16" rx="1" ry="1.05467" style="fill:#08581b"/>
  <circle cx="6.5" cy="9.5" r="5.5" style="fill:#078d0d"/>
  <path d="m13 1-5.2382812 5.2382812a3.5 3.5 0 0 0-1.2617188-0.2382812 3.5 3.5 0 0 0-3.5 3.5 3.5 3.5 0 0 0 3.5 3.5 3.5 3.5 0 0 0 3.5-3.5 3.5 3.5 0 0 0-0.2363281-1.2636719l0.2363281-0.2363281h2v-2h1l1-1v-1l1-1v-2zm-7 8a1 1 0 0 1 1 1 1 1 0 0 1-1 1 1 1 0 0 1-1-1 1 1 0 0 1 1-1z" style="fill:#ffffff"/>
  <path d="m7 5 4-4-4 2.3898305-2-0.8983051z" style="fill:#fff51f"/>
 </g>
</svg>

<svg width="16" height="16" version="1.1" xmlns="http://www.w3.org/2000/svg">
 <rect width="16" height="16" rx="1" ry="1.05467" style="fill:#08581b"/>
 <circle cx="6.5" cy="9.5" r="5.5" style="fill:#aca793"/>
 <path d="M 13,1 7.7617188,6.2382812 A 3.5,3.5 0 0 0 6.5,6 3.5,3.5 0 0 0 3,9.5 3.5,3.5 0 0 0 6.5,13 3.5,3.5 0 0 0 10,9.5 3.5,3.5 0 0 0 9.7636719,8.2363281 L 10,8 h 2 V 6 h 1 L 14,5 V 4 L 15,3 V 1 Z M 6,9 A 1,1 0 0 1 7,10 1,1 0 0 1 6,11 1,1 0 0 1 5,10 1,1 0 0 1 6,9 Z" style="fill:#ffffff"/>
 <path d="m7 6 5-6-5 3-3-1z" style="fill:#fff51f"/>
</svg>
